assets/Nerd face/Flat/nerd_face_flat.svg

<svg width="32" height="32" viewBox="0 0 32 32" fill="none" xmlns="http://www.w3.org/2000/svg">
<path d="M15.9989 29.9978C25.3333 29.9978 29.9978 23.7303 29.9978 15.9989C29.9978 8.26751 25.3333 2 15.9989 2C6.66443 2 2 8.26751 2 15.9989C2 23.7303 6.66443 29.9978 15.9989 29.9978Z" fill="#FFB02E"/>
<path d="M23 20C23 23.87 19.87 27 16 27C12.13 27 9 23.87 9 20L13.0182 20L15.9974 21L18.9766 20L23 20Z" fill="#BB1D80"/>
<path d="M13 20H19V20.5C19 21.0523 18.5523 21.5 18 21.5H14C13.4477 21.5 13 21.0523 13 20.5V20Z" fill="white"/>
<path d="M14.5 13.5C14.5 16.2614 12.2614 18.5 9.5 18.5C6.73858 18.5 4.5 16.2614 4.5 13.5C4.5 10.7386 6.73858 8.5 9.5 8.5C12.2614 8.5 14.5 10.7386 14.5 13.5Z" fill="white"/>
<path d="M27.5 13.5C27.5 16.2614 25.2614 18.5 22.5 18.5C19.7386 18.5 17.5 16.2614 17.5 13.5C17.5 10.7386 19.7386 8.5 22.5 8.5C25.2614 8.5 27.5 10.7386 27.5 13.5Z" fill="white"/>
<path d="M8 13.5C8 12.119 9.11895 11 10.5 11C11.881 11 13 12.119 13 13.5C13 14.881 11.881 16 10.5 16C9.11895 16 8 14.881 8 13.5Z" fill="#402A32"/>
<path d="M19 13.5C19 12.119 20.119 11 21.5 11C22.8811 11 24 12.119 24 13.5C24 14.881 22.8811 16 21.5 16C20.119 16 19 14.881 19 13.5Z" fill="#402A32"/>
<path d="M9.5 8C12.0176 8 14.14 9.69149 14.793 12H17.207C17.86 9.69149 19.9824 8 22.5 8C25.0176 8 27.14 9.69149 27.793 12H29.913C30.5109 12 31 12.45 31 13C31 13.55 30.5109 14 29.913 14H27.9776C27.725 16.8033 25.369 19 22.5 19C19.631 19 17.275 16.8033 17.0224 14H14.9776C14.725 16.8032 12.369 19 9.5 19C6.63098 19 4.27504 16.8032 4.02242 14H2C1.44772 14 1 13.5523 1 13C1 12.4477 1.44772 12 2 12H4.20703C4.85996 9.69149 6.98245 8 9.5 8ZM5 13.5C5 15.9853 7.01472 18 9.5 18C11.9853 18 14 15.9853 14 13.5C14 11.0147 11.9853 9 9.5 9C7.01472 9 5 11.0147 5 13.5ZM18.0073 13.5C18.0073 15.9812 20.0188 17.9927 22.5 17.9927C24.9812 17.9927 26.9927 15.9812 26.9927 13.5C26.9927 11.0188 24.9812 9.00733 22.5 9.00733C20.0188 9.00733 18.0073 11.0188 18.0073 13.5Z" fill="#402A32"/>
</svg>

<svg xmlns="http://www.w3.org/2000/svg" width="32" height="32" fill="none"><path fill="#FFB02E" d="M15.999 29.998c9.334 0 13.999-6.268 13.999-14 0-7.73-4.665-13.998-14-13.998C6.665 2 2 8.268 2 15.999c0 7.731 4.664 13.999 13.999 13.999Z"/><path fill="#BB1D80" d="M23 20c0 3.87-3.13 7-7 7s-7-3.13-7-7h4.018l2.98 1 2.979-1H23Z"/><path fill="#fff" d="M13 20h6v.5a1 1 0 0 1-1 1h-4a1 1 0 0 1-1-1V20ZM14.5 13.5a5 5 0 1 1-10 0 5 5 0 0 1 10 0ZM27.5 13.5a5 5 0 1 1-10 0 5 5 0 0 1 10 0Z"/><path fill="#402A32" d="M8 13.5a2.5 2.5 0 1 1 5 0 2.5 2.5 0 0 1-5 0ZM19 13.5a2.5 2.5 0 1 1 5 0 2.5 2.5 0 0 1-5 0Z"/><path fill="#402A32" d="M9.5 8a5.502 5.502 0 0 1 5.293 4h2.414a5.502 5.502 0 0 1 10.586 0h2.12c.598 0 1.087.45 1.087 1s-.49 1-1.087 1h-1.935a5.5 5.5 0 0 1-10.956 0h-2.044a5.5 5.5 0 0 1-10.956 0H2a1 1 0 1 1 0-2h2.207A5.502 5.502 0 0 1 9.5 8ZM5 13.5a4.5 4.5 0 1 0 9 0 4.5 4.5 0 0 0-9 0Zm13.007 0a4.493 4.493 0 1 0 8.986 0 4.493 4.493 0 0 0-8.986 0Z"/></svg>
